X:1164
T:Barbara Frost
R:jig
C:Paul S. Cranford
O:20th Century Cape Breton
D:The Lighthouse, Cranford Publications
B:The Lighthouse Collection, ISBN 0-9691181-5-5
N:http://www.cranfordpub.com
H:Composed for Captain Andy Patterson, Cutler, Me
L:1/8
Q:288
M:6/8
K:Bb
c|dff ecA|BFE DEF|GBB FBB|dcB c2B|!
dff ecA|BFE DEF|GBB FBB|ecA B2:|!
f|bgg gfd|fdB cdf|bgg gfd|fdc B2f|!
bgg gfd|fdB cdf|gbb fbb|ecA B2:|!
